X: 20439
T: John Jameson
R: jig
M: 6/8
K: Dmajor
D2D EFG|F2D D2z|d2d e2f|g3 f3|
gee f2d|dcB A2A|FDD DEF|G3 E3|
AFF G2E|FDD D2z|d2d e2f|g3 f3|
gee f2d|dcB A2A|FDD DEF|G3 E3||
DED d2d|EFE c2c|DED d2d|c3 A3|
ABc dFd|=cAB c2c|EFE =cBc|G3 E3|
DED ABA|FDF ABA|FGA B=cA|G3 E3|
=cAc GAG|EGE GAG|FGA dAG|F3 D3||

